src/assets/icons/linkedin.svg

<?xml version="1.0" encoding="UTF-8"?>
<svg width="36px" height="36px" viewBox="0 0 36 36" version="1.1" xmlns="http://www.w3.org/2000/svg" xmlns:xlink="http://www.w3.org/1999/xlink">
    <!-- Generator: Sketch 53.2 (72643) - https://sketchapp.com -->
    <title>linkedin outlined</title>
    <desc>Created with Sketch.</desc>
    <g id="linkedin-outlined" stroke="none" stroke-width="1" fill="none" fill-rule="evenodd">
        <circle id="Oval" stroke="#FFFFFF" cx="18" cy="18" r="17.5"></circle>
        <path d="M13.0291071,25.9995982 L9.29732143,25.9995982 L9.29732143,13.9821875 L13.0291071,13.9821875 L13.0291071,25.9995982 Z M11.1612054,12.3429018 C9.96790179,12.3429018 9,11.3545089 9,10.1612053 C9.00000002,8.96760458 9.96760461,8 11.1612054,8 C12.3548061,8 13.3224107,8.96760458 13.3224107,10.1612053 C13.3224107,11.3545089 12.3541071,12.3429018 11.1612054,12.3429018 Z M26.9959821,25.9995982 L23.2722321,25.9995982 L23.2722321,20.1495982 C23.2722321,18.7554018 23.2441071,16.9674553 21.3320089,16.9674553 C19.3917857,16.9674553 19.0944643,18.4821875 19.0944643,20.0491518 L19.0944643,25.9995982 L15.3666964,25.9995982 L15.3666964,13.9821875 L18.9458036,13.9821875 L18.9458036,15.6214732 L18.9980357,15.6214732 C19.49625,14.6772768 20.7132589,13.6808482 22.5289286,13.6808482 C26.3057143,13.6808482 27,16.1679018 27,19.3982589 L27,25.9995982 L26.9959821,25.9995982 Z" id="Shape" fill="#FFFFFF" fill-rule="nonzero"></path>
    </g>
</svg>

<svg width="36" height="36" xmlns="http://www.w3.org/2000/svg"><g fill="none" fill-rule="evenodd"><circle stroke="#FFF" cx="18" cy="18" r="17.5"/><path d="M13.03 26H9.296V13.982h3.732V26zM11.16 12.343C9.968 12.343 9 11.355 9 10.16a2.161 2.161 0 0 1 4.322 0c0 1.194-.968 2.182-2.16 2.182zM26.996 26h-3.724v-5.85c0-1.395-.028-3.183-1.94-3.183-1.94 0-2.238 1.515-2.238 3.082V26h-3.727V13.983h3.579v1.64h.052c.498-.945 1.715-1.941 3.53-1.941 3.778 0 4.472 2.487 4.472 5.717V26h-.004z" fill="#FFF" fill-rule="nonzero"/></g></svg>
